images/6603742.svg

<?xml version="1.0" encoding="UTF-8"?>
<svg xmlns="http://www.w3.org/2000/svg" xmlns:xlink="http://www.w3.org/1999/xlink" width="300pt" height="300pt" viewBox="0 0 300 300" version="1.1">
<defs>
<g>
<symbol overflow="visible" id="glyph0-0">
<path style="stroke:none;" d="M 0.453125 1.59375 L 0.453125 -6.34375 L 4.953125 -6.34375 L 4.953125 1.59375 Z M 0.953125 1.09375 L 4.453125 1.09375 L 4.453125 -5.84375 L 0.953125 -5.84375 Z M 0.953125 1.09375 "/>
</symbol>
<symbol overflow="visible" id="glyph0-1">
<path style="stroke:none;" d="M 3.546875 -5.953125 C 2.898438 -5.953125 2.382812 -5.710938 2 -5.234375 C 1.625 -4.753906 1.4375 -4.101562 1.4375 -3.28125 C 1.4375 -2.445312 1.625 -1.789062 2 -1.3125 C 2.382812 -0.832031 2.898438 -0.59375 3.546875 -0.59375 C 4.191406 -0.59375 4.703125 -0.832031 5.078125 -1.3125 C 5.453125 -1.789062 5.640625 -2.445312 5.640625 -3.28125 C 5.640625 -4.101562 5.453125 -4.753906 5.078125 -5.234375 C 4.703125 -5.710938 4.191406 -5.953125 3.546875 -5.953125 Z M 3.546875 -6.6875 C 4.460938 -6.6875 5.195312 -6.375 5.75 -5.75 C 6.300781 -5.132812 6.578125 -4.3125 6.578125 -3.28125 C 6.578125 -2.238281 6.300781 -1.410156 5.75 -0.796875 C 5.195312 -0.179688 4.460938 0.125 3.546875 0.125 C 2.617188 0.125 1.878906 -0.179688 1.328125 -0.796875 C 0.773438 -1.410156 0.5 -2.238281 0.5 -3.28125 C 0.5 -4.3125 0.773438 -5.132812 1.328125 -5.75 C 1.878906 -6.375 2.617188 -6.6875 3.546875 -6.6875 Z M 3.546875 -6.6875 "/>
</symbol>
<symbol overflow="visible" id="glyph0-2">
<path style="stroke:none;" d="M 0.890625 -6.5625 L 1.765625 -6.5625 L 1.765625 -3.875 L 5 -3.875 L 5 -6.5625 L 5.890625 -6.5625 L 5.890625 0 L 5 0 L 5 -3.125 L 1.765625 -3.125 L 1.765625 0 L 0.890625 0 Z M 0.890625 -6.5625 "/>
</symbol>
<symbol overflow="visible" id="glyph0-3">
<path style="stroke:none;" d="M 0.890625 -6.5625 L 4.65625 -6.5625 L 4.65625 -5.8125 L 1.765625 -5.8125 L 1.765625 -3.875 L 4.375 -3.875 L 4.375 -3.140625 L 1.765625 -3.140625 L 1.765625 0 L 0.890625 0 Z M 0.890625 -6.5625 "/>
</symbol>
</g>
</defs>
<g id="surface55137">
<rect x="0" y="0" width="300" height="300" style="fill:rgb(100%,100%,100%);fill-opacity:1;stroke:none;"/>
<path style=" stroke:none;fill-rule:nonzero;fill:rgb(0%,0%,0%);fill-opacity:1;" d="M 91.976562 176.476562 L 68.558594 184.183594 L 72.609375 191.734375 Z M 91.976562 176.476562 "/>
<path style="fill:none;stroke-width:1.2;stroke-linecap:butt;stroke-linejoin:miter;stroke:rgb(0%,0%,0%);stroke-opacity:1;stroke-miterlimit:10;" d="M 91.976562 176.476562 L 113.835938 187.035156 "/>
<path style="fill:none;stroke-width:1.2;stroke-linecap:butt;stroke-linejoin:miter;stroke:rgb(0%,0%,0%);stroke-opacity:1;stroke-miterlimit:10;" d="M 95.261719 152.425781 L 91.976562 176.476562 "/>
<path style=" stroke:none;fill-rule:nonzero;fill:rgb(0%,0%,0%);fill-opacity:1;" d="M 130.636719 169.507812 L 110.746094 184.074219 L 116.929688 190 Z M 130.636719 169.507812 "/>
<path style="fill:none;stroke-width:1.2;stroke-linecap:butt;stroke-linejoin:miter;stroke:rgb(0%,0%,0%);stroke-opacity:1;stroke-miterlimit:10;" d="M 130.636719 169.507812 L 154.902344 170.261719 "/>
<path style="fill:none;stroke-width:1.2;stroke-linecap:butt;stroke-linejoin:miter;stroke:rgb(0%,0%,0%);stroke-opacity:1;stroke-miterlimit:10;" d="M 119.15625 148.117188 L 130.636719 169.507812 "/>
<path style="fill:none;stroke-width:1;stroke-linecap:butt;stroke-linejoin:miter;stroke:rgb(0%,0%,0%);stroke-opacity:1;stroke-miterlimit:10;" d="M 154.902344 170.261719 L 154.902344 170.261719 M 155.839844 173.109375 L 156.757812 172.617188 M 156.777344 175.960938 L 158.613281 174.972656 M 157.714844 178.808594 L 160.46875 177.332031 M 158.652344 181.660156 L 162.328125 179.6875 M 159.589844 184.511719 L 164.183594 182.042969 M 160.527344 187.359375 L 166.039062 184.402344 M 161.464844 190.210938 L 167.894531 186.757812 M 162.402344 193.058594 L 169.753906 189.113281 M 162.605469 193.679688 L 170.15625 189.628906 "/>
<path style="fill:none;stroke-width:1.2;stroke-linecap:butt;stroke-linejoin:miter;stroke:rgb(0%,0%,0%);stroke-opacity:1;stroke-miterlimit:10;" d="M 167.6875 149.625 L 154.902344 170.261719 "/>
<path style="fill:none;stroke-width:1.2;stroke-linecap:butt;stroke-linejoin:miter;stroke:rgb(0%,0%,0%);stroke-opacity:1;stroke-miterlimit:10;" d="M 166.382812 191.652344 L 190.648438 192.40625 "/>
<path style="fill:none;stroke-width:1.2;stroke-linecap:butt;stroke-linejoin:miter;stroke:rgb(0%,0%,0%);stroke-opacity:1;stroke-miterlimit:10;" d="M 190.648438 192.40625 L 203.433594 171.769531 "/>
<path style="fill:none;stroke-width:1.2;stroke-linecap:butt;stroke-linejoin:miter;stroke:rgb(0%,0%,0%);stroke-opacity:1;stroke-miterlimit:10;" d="M 203.433594 171.769531 L 227.699219 172.523438 "/>
<path style="fill:none;stroke-width:1.2;stroke-linecap:butt;stroke-linejoin:miter;stroke:rgb(0%,0%,0%);stroke-opacity:1;stroke-miterlimit:10;" d="M 206.035156 166.132812 L 225.449219 166.738281 "/>
<path style="fill:none;stroke-width:1.2;stroke-linecap:butt;stroke-linejoin:miter;stroke:rgb(0%,0%,0%);stroke-opacity:1;stroke-miterlimit:10;" d="M 191.953125 150.375 L 203.433594 171.769531 "/>
<path style="fill:none;stroke-width:1.2;stroke-linecap:butt;stroke-linejoin:miter;stroke:rgb(0%,0%,0%);stroke-opacity:1;stroke-miterlimit:10;" d="M 227.699219 172.523438 L 240.484375 151.882812 "/>
<path style="fill:none;stroke-width:1.2;stroke-linecap:butt;stroke-linejoin:miter;stroke:rgb(0%,0%,0%);stroke-opacity:1;stroke-miterlimit:10;" d="M 240.394531 154.738281 L 252.527344 155.117188 "/>
<path style="fill:none;stroke-width:1.2;stroke-linecap:butt;stroke-linejoin:miter;stroke:rgb(100%,0%,0%);stroke-opacity:1;stroke-miterlimit:10;" d="M 252.527344 155.117188 L 264.660156 155.492188 "/>
<path style="fill:none;stroke-width:1.2;stroke-linecap:butt;stroke-linejoin:miter;stroke:rgb(0%,0%,0%);stroke-opacity:1;stroke-miterlimit:10;" d="M 240.574219 149.027344 L 252.707031 149.40625 "/>
<path style="fill:none;stroke-width:1.2;stroke-linecap:butt;stroke-linejoin:miter;stroke:rgb(100%,0%,0%);stroke-opacity:1;stroke-miterlimit:10;" d="M 252.707031 149.40625 L 264.839844 149.78125 "/>
<path style="fill:none;stroke-width:1.2;stroke-linecap:butt;stroke-linejoin:miter;stroke:rgb(0%,0%,0%);stroke-opacity:1;stroke-miterlimit:10;" d="M 240.484375 151.882812 L 229.003906 130.492188 "/>
<path style=" stroke:none;fill-rule:nonzero;fill:rgb(100%,100%,100%);fill-opacity:1;" d="M 260.75 147.136719 L 268.75 147.136719 L 268.75 158.136719 L 260.75 158.136719 Z M 260.75 147.136719 "/>
<g style="fill:rgb(100%,0%,0%);fill-opacity:1;">
  <use xlink:href="#glyph0-1" x="260.75" y="155.799805"/>
</g>
<path style="fill:none;stroke-width:1.2;stroke-linecap:butt;stroke-linejoin:miter;stroke:rgb(0%,0%,0%);stroke-opacity:1;stroke-miterlimit:10;" d="M 229.003906 130.492188 L 204.738281 129.738281 "/>
<path style="fill:none;stroke-width:1.2;stroke-linecap:butt;stroke-linejoin:miter;stroke:rgb(0%,0%,0%);stroke-opacity:1;stroke-miterlimit:10;" d="M 226.398438 136.125 L 206.988281 135.523438 "/>
<path style="fill:none;stroke-width:1.2;stroke-linecap:butt;stroke-linejoin:miter;stroke:rgb(0%,0%,0%);stroke-opacity:1;stroke-miterlimit:10;" d="M 204.738281 129.738281 L 191.953125 150.375 "/>
<path style="fill:none;stroke-width:1.2;stroke-linecap:butt;stroke-linejoin:miter;stroke:rgb(0%,0%,0%);stroke-opacity:1;stroke-miterlimit:10;" d="M 191.953125 150.375 L 167.6875 149.625 "/>
<path style="fill:none;stroke-width:1;stroke-linecap:butt;stroke-linejoin:miter;stroke:rgb(0%,0%,0%);stroke-opacity:1;stroke-miterlimit:10;" d="M 191.953125 150.375 L 191.953125 150.375 M 191.710938 147.386719 L 190.109375 148.007812 M 191.472656 144.394531 L 188.269531 145.640625 M 191.234375 141.40625 L 186.429688 143.269531 M 190.992188 138.414062 L 184.585938 140.902344 M 190.757812 135.460938 L 182.769531 138.5625 "/>
<path style="fill:none;stroke-width:1.2;stroke-linecap:butt;stroke-linejoin:miter;stroke:rgb(0%,0%,0%);stroke-opacity:1;stroke-miterlimit:10;" d="M 167.6875 149.625 L 156.207031 128.230469 "/>
<path style="fill:none;stroke-width:1;stroke-linecap:butt;stroke-linejoin:miter;stroke:rgb(0%,0%,0%);stroke-opacity:1;stroke-miterlimit:10;" d="M 167.6875 149.625 L 167.6875 149.625 M 169.671875 147.375 L 168.109375 146.652344 M 171.65625 145.125 L 168.535156 143.683594 M 173.640625 142.875 L 168.960938 140.714844 M 175.625 140.625 L 169.386719 137.742188 M 177.585938 138.402344 L 169.804688 134.8125 "/>
<path style="fill:none;stroke-width:1.2;stroke-linecap:butt;stroke-linejoin:miter;stroke:rgb(0%,0%,0%);stroke-opacity:1;stroke-miterlimit:10;" d="M 156.207031 128.230469 L 131.941406 127.476562 "/>
<path style="fill:none;stroke-width:1;stroke-linecap:butt;stroke-linejoin:miter;stroke:rgb(0%,0%,0%);stroke-opacity:1;stroke-miterlimit:10;" d="M 156.207031 128.230469 L 156.207031 128.230469 M 158.207031 125.996094 L 157.320312 125.445312 M 160.203125 123.757812 L 158.429688 122.660156 M 162.203125 121.519531 L 159.542969 119.875 M 164.203125 119.285156 L 160.65625 117.085938 M 166.203125 117.046875 L 161.769531 114.300781 M 168.199219 114.808594 L 162.882812 111.515625 M 170.199219 112.574219 L 163.996094 108.730469 M 172.199219 110.335938 L 165.109375 105.941406 M 172.632812 109.851562 L 165.347656 105.335938 "/>
<path style="fill:none;stroke-width:1.2;stroke-linecap:butt;stroke-linejoin:miter;stroke:rgb(0%,0%,0%);stroke-opacity:1;stroke-miterlimit:10;" d="M 131.941406 127.476562 L 119.15625 148.117188 "/>
<path style="fill:none;stroke-width:1.2;stroke-linecap:butt;stroke-linejoin:miter;stroke:rgb(0%,0%,0%);stroke-opacity:1;stroke-miterlimit:10;" d="M 119.15625 148.117188 L 95.261719 152.425781 "/>
<path style=" stroke:none;fill-rule:nonzero;fill:rgb(0%,0%,0%);fill-opacity:1;" d="M 119.15625 148.117188 L 111.859375 124.566406 L 104.238281 128.488281 Z M 119.15625 148.117188 "/>
<path style="fill:none;stroke-width:1;stroke-linecap:butt;stroke-linejoin:miter;stroke:rgb(0%,0%,0%);stroke-opacity:1;stroke-miterlimit:10;" d="M 95.261719 152.425781 L 95.261719 152.425781 M 92.324219 151.8125 L 92.292969 152.851562 M 89.390625 151.199219 L 89.324219 153.28125 M 86.453125 150.585938 L 86.355469 153.710938 M 83.515625 149.972656 L 83.386719 154.140625 M 80.578125 149.359375 L 80.417969 154.570312 M 77.640625 148.746094 L 77.449219 155 M 74.703125 148.132812 L 74.476562 155.429688 M 71.769531 147.523438 L 71.507812 155.859375 M 71.128906 147.386719 L 70.863281 155.953125 "/>
<path style="fill:none;stroke-width:1.2;stroke-linecap:butt;stroke-linejoin:miter;stroke:rgb(0%,0%,0%);stroke-opacity:1;stroke-miterlimit:10;" d="M 95.261719 152.425781 L 92.898438 140.515625 "/>
<path style="fill:none;stroke-width:1.2;stroke-linecap:butt;stroke-linejoin:miter;stroke:rgb(100%,0%,0%);stroke-opacity:1;stroke-miterlimit:10;" d="M 92.898438 140.515625 L 90.539062 128.609375 "/>
<path style="fill:none;stroke-width:1.2;stroke-linecap:butt;stroke-linejoin:miter;stroke:rgb(0%,0%,0%);stroke-opacity:1;stroke-miterlimit:10;" d="M 68.566406 150.167969 L 62.175781 160.484375 "/>
<path style="fill:none;stroke-width:1.2;stroke-linecap:butt;stroke-linejoin:miter;stroke:rgb(100%,0%,0%);stroke-opacity:1;stroke-miterlimit:10;" d="M 62.175781 160.484375 L 55.78125 170.804688 "/>
<path style="fill:none;stroke-width:1.2;stroke-linecap:butt;stroke-linejoin:miter;stroke:rgb(0%,0%,0%);stroke-opacity:1;stroke-miterlimit:10;" d="M 73.425781 153.175781 L 67.03125 163.492188 "/>
<path style="fill:none;stroke-width:1.2;stroke-linecap:butt;stroke-linejoin:miter;stroke:rgb(100%,0%,0%);stroke-opacity:1;stroke-miterlimit:10;" d="M 67.03125 163.492188 L 60.640625 173.8125 "/>
<path style="fill:none;stroke-width:1.2;stroke-linecap:butt;stroke-linejoin:miter;stroke:rgb(0%,0%,0%);stroke-opacity:1;stroke-miterlimit:10;" d="M 70.996094 151.671875 L 59.515625 130.277344 "/>
<path style=" stroke:none;fill-rule:nonzero;fill:rgb(100%,100%,100%);fill-opacity:1;" d="M 50.210938 166.808594 L 58.210938 166.808594 L 58.210938 177.808594 L 50.210938 177.808594 Z M 50.210938 166.808594 "/>
<g style="fill:rgb(100%,0%,0%);fill-opacity:1;">
  <use xlink:href="#glyph0-1" x="50.210938" y="175.47168"/>
</g>
<path style="fill:none;stroke-width:1.2;stroke-linecap:butt;stroke-linejoin:miter;stroke:rgb(0%,0%,0%);stroke-opacity:1;stroke-miterlimit:10;" d="M 59.515625 130.277344 L 47.382812 129.902344 "/>
<path style="fill:none;stroke-width:1.2;stroke-linecap:butt;stroke-linejoin:miter;stroke:rgb(100%,0%,0%);stroke-opacity:1;stroke-miterlimit:10;" d="M 47.382812 129.902344 L 35.25 129.523438 "/>
<path style=" stroke:none;fill-rule:nonzero;fill:rgb(100%,100%,100%);fill-opacity:1;" d="M 20.25 124.023438 L 35.25 124.023438 L 35.25 135.023438 L 20.25 135.023438 Z M 20.25 124.023438 "/>
<g style="fill:rgb(100%,0%,0%);fill-opacity:1;">
  <use xlink:href="#glyph0-2" x="20.25" y="132.686523"/>
  <use xlink:href="#glyph0-1" x="27.264648" y="132.686523"/>
</g>
<path style=" stroke:none;fill-rule:nonzero;fill:rgb(100%,100%,100%);fill-opacity:1;" d="M 83.539062 123.109375 L 98.539062 123.109375 L 98.539062 134.109375 L 83.539062 134.109375 Z M 83.539062 123.109375 "/>
<g style="fill:rgb(100%,0%,0%);fill-opacity:1;">
  <use xlink:href="#glyph0-2" x="83.539062" y="131.772461"/>
  <use xlink:href="#glyph0-1" x="90.553711" y="131.772461"/>
</g>
<path style=" stroke:none;fill-rule:nonzero;fill:rgb(100%,100%,100%);fill-opacity:1;" d="M 161.992188 102.09375 L 176.992188 102.09375 L 176.992188 113.09375 L 161.992188 113.09375 Z M 161.992188 102.09375 "/>
<g style="fill:rgb(100%,0%,0%);fill-opacity:1;">
  <use xlink:href="#glyph0-1" x="161.992188" y="110.756836"/>
  <use xlink:href="#glyph0-2" x="169.333984" y="110.756836"/>
</g>
<path style=" stroke:none;fill-rule:nonzero;fill:rgb(100%,100%,100%);fill-opacity:1;" d="M 170.695312 131.105469 L 176.695312 131.105469 L 176.695312 142.105469 L 170.695312 142.105469 Z M 170.695312 131.105469 "/>
<g style="fill:rgb(20%,80%,80%);fill-opacity:1;">
  <use xlink:href="#glyph0-3" x="170.695312" y="139.768555"/>
</g>
</g>
</svg>

<svg xmlns="http://www.w3.org/2000/svg" xmlns:xlink="http://www.w3.org/1999/xlink" width="300pt" height="300pt" viewBox="0 0 300 300"><defs><symbol overflow="visible"><path d="M.453 1.594v-7.938h4.5v7.938zm.5-.5h3.5v-6.938h-3.5zm0 0"/></symbol><symbol overflow="visible" id="a"><path d="M3.547-5.953c-.65 0-1.164.242-1.547.72-.375.48-.563 1.13-.563 1.952 0 .835.188 1.49.563 1.967.383.48.898.72 1.547.72.644 0 1.156-.24 1.53-.72.376-.476.564-1.132.564-1.968 0-.822-.187-1.474-.562-1.954-.375-.477-.887-.72-1.53-.72zm0-.734c.914 0 1.648.312 2.203.937.55.617.828 1.438.828 2.47 0 1.042-.277 1.87-.828 2.483-.555.617-1.29.922-2.203.922-.93 0-1.668-.305-2.22-.922C.774-1.41.5-2.237.5-3.28c0-1.033.273-1.853.828-2.47.55-.625 1.29-.938 2.22-.938zm0 0"/></symbol><symbol overflow="visible" id="b"><path d="M.89-6.563h.876v2.688H5v-2.688h.89V0H5v-3.125H1.766V0H.89zm0 0"/></symbol><symbol overflow="visible" id="c"><path d="M.89-6.563h3.766v.75h-2.89v1.938h2.61v.734h-2.61V0H.89zm0 0"/></symbol></defs><g><path fill="#fff" d="M0 0h300v300H0z"/><path d="M91.977 176.477l-23.418 7.707 4.05 7.55zm0 0"/><path d="M91.977 176.477l21.86 10.558M95.262 152.426l-3.285 24.05" stroke-width="1.2" stroke="#000" stroke-miterlimit="10" fill="none"/><path d="M130.637 169.508l-19.89 14.566L116.93 190zm0 0"/><path d="M130.637 169.508l24.265.754M119.156 148.117l11.48 21.39" stroke-width="1.2" stroke="#000" stroke-miterlimit="10" fill="none"/><path d="M154.902 170.262m.938 2.847l.918-.493m.02 3.344l1.835-.987m-.898 3.836l2.754-1.478m-1.818 4.328l3.676-1.972m-2.738 4.824l4.594-2.47m-3.657 5.317l5.512-2.958m-4.575 5.81l6.43-3.454m-5.493 6.3l7.352-3.945m-7.15 4.567l7.552-4.05" stroke="#000" stroke-miterlimit="10" fill="none"/><path d="M167.688 149.625L154.9 170.262M166.383 191.652l24.265.754M190.648 192.406l12.786-20.636M203.434 171.77l24.265.753M206.035 166.133l19.414.605M191.953 150.375l11.48 21.395M227.7 172.523l12.784-20.64M240.395 154.738l12.132.38" stroke-width="1.2" stroke="#000" stroke-miterlimit="10" fill="none"/><path d="M252.527 155.117l12.133.375" stroke-width="1.2" stroke="#f00" stroke-miterlimit="10" fill="none"/><path d="M240.574 149.027l12.133.38" stroke-width="1.2" stroke="#000" stroke-miterlimit="10" fill="none"/><path d="M252.707 149.406l12.133.375" stroke-width="1.2" stroke="#f00" stroke-miterlimit="10" fill="none"/><path d="M240.484 151.883l-11.48-21.39" stroke-width="1.2" stroke="#000" stroke-miterlimit="10" fill="none"/><path d="M260.75 147.137h8v11h-8zm0 0" fill="#fff"/><use xlink:href="#a" x="260.75" y="155.8" fill="#f00"/><path d="M229.004 130.492l-24.266-.754M226.398 136.125l-19.41-.602M204.738 129.738l-12.785 20.637M191.953 150.375l-24.266-.75" stroke-width="1.2" stroke="#000" stroke-miterlimit="10" fill="none"/><path d="M191.953 150.375m-.242-2.988l-1.6.62m1.363-3.612l-3.203 1.246m2.964-4.234l-4.804 1.864m4.562-4.856l-6.406 2.488m6.172-5.44l-7.988 3.1" stroke="#000" stroke-miterlimit="10" fill="none"/><path d="M167.688 149.625l-11.48-21.395" stroke-width="1.2" stroke="#000" stroke-miterlimit="10" fill="none"/><path d="M167.688 149.625m1.984-2.25l-1.563-.723m3.546-1.527l-3.12-1.44m5.105-.81l-4.68-2.16m6.665-.09l-6.238-2.883m8.2.66l-7.782-3.59" stroke="#000" stroke-miterlimit="10" fill="none"/><path d="M156.207 128.23l-24.266-.753" stroke-width="1.2" stroke="#000" stroke-miterlimit="10" fill="none"/><path d="M156.207 128.23m2-2.234l-.887-.55m2.883-1.688l-1.773-1.098m3.773-1.14l-2.66-1.645m4.66-.59l-3.547-2.2m5.547-.038l-4.433-2.746m6.43.51l-5.317-3.294m7.316 1.058l-6.204-3.844m8.203 1.606l-7.09-4.395m7.523 3.912l-7.285-4.516" stroke="#000" stroke-miterlimit="10" fill="none"/><path d="M131.94 127.477l-12.784 20.64M119.156 148.117l-23.894 4.31" stroke-width="1.2" stroke="#000" stroke-miterlimit="10" fill="none"/><path d="M119.156 148.117l-7.297-23.55-7.622 3.92zm0 0"/><path d="M95.262 152.426m-2.938-.613l-.03 1.04m-2.903-1.654l-.066 2.08m-2.87-2.694l-.1 3.125m-2.838-3.737l-.13 4.168m-2.808-4.78l-.16 5.21m-2.777-5.824L77.45 155m-2.747-6.867l-.226 7.297m-2.707-7.907l-.262 8.336m-.38-8.473l-.265 8.566" stroke="#000" stroke-miterlimit="10" fill="none"/><path d="M95.262 152.426l-2.364-11.91" stroke-width="1.2" stroke="#000" stroke-miterlimit="10" fill="none"/><path d="M92.898 140.516l-2.36-11.907" stroke-width="1.2" stroke="#f00" stroke-miterlimit="10" fill="none"/><path d="M68.566 150.168l-6.39 10.316" stroke-width="1.2" stroke="#000" stroke-miterlimit="10" fill="none"/><path d="M62.176 160.484l-6.395 10.32" stroke-width="1.2" stroke="#f00" stroke-miterlimit="10" fill="none"/><path d="M73.426 153.176l-6.395 10.316" stroke-width="1.2" stroke="#000" stroke-miterlimit="10" fill="none"/><path d="M67.03 163.492l-6.39 10.32" stroke-width="1.2" stroke="#f00" stroke-miterlimit="10" fill="none"/><path d="M70.996 151.672l-11.48-21.395" stroke-width="1.2" stroke="#000" stroke-miterlimit="10" fill="none"/><path d="M50.21 166.81h8v11h-8zm0 0" fill="#fff"/><use xlink:href="#a" x="50.211" y="175.472" fill="#f00"/><path d="M59.516 130.277l-12.133-.375" stroke-width="1.2" stroke="#000" stroke-miterlimit="10" fill="none"/><path d="M47.383 129.902l-12.133-.38" stroke-width="1.2" stroke="#f00" stroke-miterlimit="10" fill="none"/><path d="M20.25 124.023h15v11h-15zm0 0" fill="#fff"/><g fill="#f00"><use xlink:href="#b" x="20.25" y="132.687"/><use xlink:href="#a" x="27.265" y="132.687"/></g><path d="M83.54 123.11h15v11h-15zm0 0" fill="#fff"/><g fill="#f00"><use xlink:href="#b" x="83.539" y="131.772"/><use xlink:href="#a" x="90.554" y="131.772"/></g><path d="M161.992 102.094h15v11h-15zm0 0" fill="#fff"/><g fill="#f00"><use xlink:href="#a" x="161.992" y="110.757"/><use xlink:href="#b" x="169.334" y="110.757"/></g><path d="M170.695 131.105h6v11h-6zm0 0" fill="#fff"/><use xlink:href="#c" x="170.695" y="139.769" fill="#3cc"/></g></svg>
